X:48
T:Felsütött a nap sugára
M:4/4
L:1/4
K:D
DEFF | GFED |
AABB | AGFA | E2 A>G | F<E E z |
BAG<F | G<F E<D |
A,<D EF | GF E<A | D2 E>F | E<D D z |

